Newaita/actions/16/artifact.svg

<svg height="16" viewBox="0 0 16 16" width="16" xmlns="http://www.w3.org/2000/svg"><g fill="#424242"><path d="m3.96875 1.449219c-.734375 0-1.324219.589843-1.324219 1.320312v3.640625h1.324219v-2.976562c0-.367188.296875-.664063.660156-.664063h5.019532l2.261718 2.257813v1.382812h1.316406v-1.65625c0-.171875-.070312-.339844-.191406-.464844l-2.648437-2.644531c-.121094-.125-.289063-.191406-.464844-.191406h-2.644531v-.003906zm-1.324219 8.269531v3.636719c0 .734375.589844 1.324219 1.324219 1.324219h7.9375c.734375 0 1.324219-.589844 1.324219-1.324219v-3.636719h-1.324219v2.976562c0 .363282-.292969.660157-.660156.660157h-6.617188c-.363281 0-.660156-.296875-.660156-.660157v-2.976562zm0 0"/><path d="m2.148438 7.734375h2.316406c.089844 0 .164062.070313.164062.164063v.332031c0 .089843-.074218.164062-.164062.164062h-2.316406c-.089844 0-.164063-.074219-.164063-.164062v-.332031c0-.09375.074219-.164063.164063-.164063zm0 0"/><path d="m6.78125 7.734375h2.316406c.089844 0 .164063.070313.164063.164063v.332031c0 .089843-.074219.164062-.164063.164062h-2.316406c-.09375 0-.167969-.074219-.167969-.164062v-.332031c0-.09375.074219-.164063.167969-.164063zm0 0"/><path d="m11.410156 7.734375h2.316406c.089844 0 .164063.070313.164063.164063v.332031c0 .089843-.074219.164062-.164063.164062h-2.316406c-.089844 0-.164062-.074219-.164062-.164062v-.332031c0-.09375.074218-.164063.164062-.164063zm0 0"/></g></svg>

<?xml version="1.0" encoding="UTF-8"?>
<svg xmlns="http://www.w3.org/2000/svg" xmlns:xlink="http://www.w3.org/1999/xlink" width="16px" height="16px" viewBox="0 0 16 16" version="1.1">
<g id="surface1">
<path style=" stroke:none;fill-rule:nonzero;fill:rgb(25.882354%,25.882354%,25.882354%);fill-opacity:1;" d="M 3.96875 1.449219 C 3.234375 1.449219 2.644531 2.039062 2.644531 2.769531 L 2.644531 6.410156 L 3.96875 6.410156 L 3.96875 3.433594 C 3.96875 3.066406 4.265625 2.769531 4.628906 2.769531 L 9.648438 2.769531 L 11.910156 5.027344 L 11.910156 6.410156 L 13.226562 6.410156 L 13.226562 4.753906 C 13.226562 4.582031 13.15625 4.414062 13.035156 4.289062 L 10.386719 1.644531 C 10.265625 1.519531 10.097656 1.453125 9.921875 1.453125 L 7.277344 1.453125 L 7.277344 1.449219 Z M 2.644531 9.71875 L 2.644531 13.355469 C 2.644531 14.089844 3.234375 14.679688 3.96875 14.679688 L 11.90625 14.679688 C 12.640625 14.679688 13.230469 14.089844 13.230469 13.355469 L 13.230469 9.71875 L 11.90625 9.71875 L 11.90625 12.695312 C 11.90625 13.058594 11.613281 13.355469 11.246094 13.355469 L 4.628906 13.355469 C 4.265625 13.355469 3.96875 13.058594 3.96875 12.695312 L 3.96875 9.71875 Z M 2.644531 9.71875 "/>
<path style=" stroke:none;fill-rule:nonzero;fill:rgb(25.882354%,25.882354%,25.882354%);fill-opacity:1;" d="M 2.148438 7.734375 L 4.464844 7.734375 C 4.554688 7.734375 4.628906 7.804688 4.628906 7.898438 L 4.628906 8.230469 C 4.628906 8.320312 4.554688 8.394531 4.464844 8.394531 L 2.148438 8.394531 C 2.058594 8.394531 1.984375 8.320312 1.984375 8.230469 L 1.984375 7.898438 C 1.984375 7.804688 2.058594 7.734375 2.148438 7.734375 Z M 2.148438 7.734375 "/>
<path style=" stroke:none;fill-rule:nonzero;fill:rgb(25.882354%,25.882354%,25.882354%);fill-opacity:1;" d="M 6.78125 7.734375 L 9.097656 7.734375 C 9.1875 7.734375 9.261719 7.804688 9.261719 7.898438 L 9.261719 8.230469 C 9.261719 8.320312 9.1875 8.394531 9.097656 8.394531 L 6.78125 8.394531 C 6.6875 8.394531 6.613281 8.320312 6.613281 8.230469 L 6.613281 7.898438 C 6.613281 7.804688 6.6875 7.734375 6.78125 7.734375 Z M 6.78125 7.734375 "/>
<path style=" stroke:none;fill-rule:nonzero;fill:rgb(25.882354%,25.882354%,25.882354%);fill-opacity:1;" d="M 11.410156 7.734375 L 13.726562 7.734375 C 13.816406 7.734375 13.890625 7.804688 13.890625 7.898438 L 13.890625 8.230469 C 13.890625 8.320312 13.816406 8.394531 13.726562 8.394531 L 11.410156 8.394531 C 11.320312 8.394531 11.246094 8.320312 11.246094 8.230469 L 11.246094 7.898438 C 11.246094 7.804688 11.320312 7.734375 11.410156 7.734375 Z M 11.410156 7.734375 "/>
</g>
</svg>
